X:267
T: Guo yichong shan lai you yichong tian:
N: C0415
O: China,Jiangxi, Yongxin
S: IV, 267]
R: Haozi, Chuanfu haozi]
M: 2/4
L: 1/32
K: E
f16
e2e2c2f2e6c2 | B12c4 |
B4c4e4f4 | e2f2e2f2c4z4 |
e2e2c2f2e6c2 | f16 |
e2f2fc2fe6c2 | B12c4 | B2c2e2f2e4z4

@@@ Tune index: 6268
